icons/building-2-line.svg

<svg xmlns="http://www.w3.org/2000/svg" width="24" height="24" fill="none"><g clip-path="url(#a)"><g><path fill="#121212" d="M3 19V5.70002C2.99994 5.49474 3.06305 5.29442 3.18077 5.12625C3.29849 4.95809 3.4651 4.83022 3.658 4.76002L13.329 1.24402C13.4045 1.21652 13.4856 1.20765 13.5653 1.21815C13.645 1.22865 13.721 1.25822 13.7869 1.30434C13.8527 1.35046 13.9065 1.41178 13.9436 1.4831C13.9807 1.55441 14 1.63363 14 1.71402V6.66702L20.316 8.77202C20.5152 8.83837 20.6885 8.96573 20.8112 9.13607C20.934 9.3064 21.0001 9.51105 21 9.72102V19H23V21H1V19H3ZM5 19H12V3.85502L5 6.40102V19ZM19 19V10.442L14 8.77502V19H19Z"/></g></g><defs><clipPath id="a"><rect width="24" height="24" fill="white"/></clipPath></defs></svg>

<svg width="24" height="24" fill="none" xmlns="http://www.w3.org/2000/svg"><g clip-path="url(#a)"><path d="M3 19V5.7a1 1 0 0 1 .658-.94l9.671-3.516a.5.5 0 0 1 .671.47v4.953l6.316 2.105a1 1 0 0 1 .684.949V19h2v2H1v-2h2Zm2 0h7V3.855L5 6.401V19Zm14 0v-8.558l-5-1.667V19h5Z" /></g><defs><clipPath id="a"><path fill="#fff" d="M0 0h24v24H0z"/></clipPath></defs></svg>
